img/svg/tv.svg

<svg xmlns="http://www.w3.org/2000/svg" viewBox="0 0 44 36" enable-background="new 0 0 44 36"><path fill-rule="evenodd" clip-rule="evenodd" fill="#44B6F0" d="M32 16c0-.3-.2-.6-.4-.8l-.2-.1h-.1l-13.7-7.9c-.2-.1-.4-.2-.6-.2-.6 0-1 .4-1 1v16c0 .6.4 1 1 1 .2 0 .4-.1.6-.2l13.7-7.9h.1l.2-.1c.2-.2.4-.5.4-.8zm-14 6.3v-12.6l11 6.3-11 6.3z" enable-background="new"/><path fill-rule="evenodd" clip-rule="evenodd" d="M40 0h-36c-2.2 0-4 1.8-4 4v24c0 2.2 1.8 4 4 4h4v3c0 .6.4 1 1 1s1-.4 1-1v-1h24v1c0 .6.4 1 1 1s1-.4 1-1v-3h4c2.2 0 4-1.8 4-4v-24c0-2.2-1.8-4-4-4zm2 28c0 1.1-.9 2-2 2h-36c-1.1 0-2-.9-2-2v-24c0-1.1.9-2 2-2h36c1.1 0 2 .9 2 2v24z" enable-background="new"/></svg>

<?xml version="1.0" encoding="utf-8"?>
<!-- Generator: Adobe Illustrator 18.1.1, SVG Export Plug-In . SVG Version: 6.00 Build 0)  -->
<svg version="1.1" xmlns="http://www.w3.org/2000/svg" xmlns:xlink="http://www.w3.org/1999/xlink" x="0px" y="0px"
	 viewBox="0 0 44 36" enable-background="new 0 0 44 36" xml:space="preserve">
<g id="Shape_12_1_" enable-background="new    ">
	<g id="Shape_12">
		<g>
			<path fill-rule="evenodd" clip-rule="evenodd" fill="#44B6F0" d="M32,16c0-0.3-0.2-0.6-0.4-0.8l0,0l-0.2-0.1c0,0,0,0-0.1,0
				L17.6,7.2l0,0C17.4,7.1,17.2,7,17,7c-0.6,0-1,0.4-1,1v16c0,0.6,0.4,1,1,1c0.2,0,0.4-0.1,0.6-0.2l0,0l13.7-7.9c0,0,0,0,0.1,0
				l0.2-0.1l0,0C31.8,16.6,32,16.3,32,16z M18,22.3V9.7L29,16L18,22.3z"/>
		</g>
	</g>
</g>
<g id="Shape_16_1_" enable-background="new    ">
	<g id="Shape_16">
		<g>
			<path fill-rule="evenodd" clip-rule="evenodd" d="M40,0H4C1.8,0,0,1.8,0,4v24c0,2.2,1.8,4,4,4h4v3c0,0.6,0.4,1,1,1
				c0.6,0,1-0.4,1-1v-1h24v1c0,0.6,0.4,1,1,1c0.6,0,1-0.4,1-1v-3h4c2.2,0,4-1.8,4-4V4C44,1.8,42.2,0,40,0z M42,28c0,1.1-0.9,2-2,2H4
				c-1.1,0-2-0.9-2-2V4c0-1.1,0.9-2,2-2h36c1.1,0,2,0.9,2,2V28z"/>
		</g>
	</g>
</g>
</svg>
